X:1
T:Rosemary's Waltz
T:Rosemary's Waltz
T:No.2 from Tender is the Night
T:Richard Rodney Bennet
C:Richard Rodney Bennet
%%score { ( 1 3 ) | ( 2 4 ) }
L:1/8
Q:1/4=110
M:3/4
K:C
V:1 treble nm="Piano" snm="Pno."
V:3 treble 
V:2 bass 
V:4 bass 
V:1
 z!p! (D ED FD | E6) | z (D ED ^FD | E6) | z (E FE ^GE | F)(EAEFE | B^G!<(!BAcB!<)! |!mp! d6) | %8
 z (d ed fd | B6) | z (_B cB _dB | _G6) | z (_G!>(! _A=G =AF!>)! |!p! D)(DEDFD | ED^FDED | G6) | %16
[Q:1/4=108]"^pochiss. rit." z (G AG _B^F |[Q:1/4=106] G6) |[Q:1/4=104] z (G!<(! AG _BG!<)! | %19
[Q:1/4=110]"^a tempo, con moto"!mp! AEA,EAe | a)(GAGBG | ADA,DAd | a)(A_BA^cA | _BAdABA) | %24
!<(! (e^cedfe!<)! |!mf! gdBdgd' | g')(gag_bg | _ec Bc (3egc' | ^d')(^d^ed^fd | B^G ^DG (3B^d^g | %30
 b)(B ^cB d_B | G)(GAG_BG | AG!>(!BGAG!>)! |!mp! cG EG (3ceg | c')(cdc_eB | cG EG (3ceg | %36
 c')c'd'c'_e'c' | _acfcac' | z (^g ^ag bg | e)^G^cGeG | z (e ^fe g_e | c)(cdc_ec | dc!>(!ecdc!>)! | %43
!p! f6) |"^poco rit."[Q:1/4=107] z (_D[Q:1/4=104] _ED[Q:1/4=101] =EC | %45
[Q:1/4=98] F6)[Q:1/4=95][Q:1/4=92] |[Q:1/4=89] z (_D[Q:1/4=86]!>(! _ED[Q:1/4=83] =EC!>)! | %47
"^a tempo"[Q:1/4=110]!pp! F)!>(!(^G,B,A,CF | ^GBAcf^g | %49
"^pochiss. rit."[Q:1/4=108]!8va(! ba[Q:1/4=106]c'f'[Q:1/4=104]^g'b'!>)! | %50
!ppp![Q:1/4=60] !fermata![a'f'']6)!8va)! |] %51
V:2
 z6 |!ped! G,,2 D,2 G,,2 | D,,6!ped-up! |!ped! B,,2 ^F,2 B,,2 | E,,6!ped-up! | (A,,2 E,4) | %6
 (D,,2 ^F,4) | (B,,2 A,2 B,,2 | _B,,2 A,4) | (_E,2 _G,2 E,2 | _G,2 _B,4) | _C,4 (C,2 | F,,2 _E,4) | %13
 (_B,,2 F,4) | (A,,2 ^F,4) | G,,6 | D,,2 (G,2 ^F,2) | G,,6 | G,,6 |!ped! (C,,2 G,,2 C,2!ped-up! | %20
!ped! [G,CE]6)!ped-up! |!ped! (E,,2 B,,2 G,2-!ped-up! |!ped! [G,^CE]6)!ped-up! | %23
!ped! (D,,2 [A,DF]4)!ped-up! |!ped! (G,,2 [F,B,E]4)!ped-up! |!ped! (E,2 [B,DG]4)!ped-up! | %26
!ped! (_E,2 [_B,_DG]4)!ped-up! |!ped! (_A,,2 [G,C]2 [_EG]2)!ped-up! | %28
!ped! (B,,2 [A,^D^F]4)!ped-up! |!ped! ([E,,B,,]2 [^G,B,]2 [^D^G]2)!ped-up! | %30
!ped! (_B,,2 [_A,DF]4)!ped-up! |!ped! (_E,,2 [G,_B,D]4)!ped-up! |!ped! (G,,2 [F,B,E]4)!ped-up! | %33
!ped! (C,2 [G,D]2 [CE]2)!ped-up! |!ped! (_A,,2 [_G,C_E]4)!ped-up! | %35
!ped! (C,2 [G,D]2 [CE]2)!ped-up! |!ped! (_A,2[K:treble] [_E_Gc]4)!ped-up! | %37
[K:bass]!ped! (_D,2 [_A,CF]2 D,2)!ped-up! |!ped! (E,2 [B,D^G]4)!ped-up! | %39
!ped! (A,,2 [^G,^CE]2 A,,2)!ped-up! |!ped! (_E,2 [_B,_DE]4)!ped-up! | %41
!ped! (_A,,2 [G,C_E]4)!ped-up! |!ped! (C,,2 [E,_B,D]4)!ped-up! | %43
!ped! F,,2 ([B,,^G,]2 [C,A,]2)!ped-up! |!ped! (C,,2 [E,_B,]4)!ped-up! | %45
!ped! F,,2 ([B,,^G,]2 [C,A,]2)!ped-up! |!ped! (C,,2 [E,_B,]4)!ped-up! | %47
!ped! (F,,2 D,2 C,2)!ped-up! |[K:treble]!ped! ([B,D]2 [CF]2) ([^GB]2!ped-up! | %49
!ped! [Acf]4) ([c-^gb]2!ped-up! |!ped! !fermata![ca]6)!ped-up! |] %51
V:3
 x6 | z2 B,4 | B,6 | z2 ([A,D-]4 | [^G,D]6) | z2 C4 | z2 [CE]4 | z2 [D^F]4 | z2 [F_B]4 | z2 [DG]4 | %10
 z2 [_F_A]4 | z2 [_B,_E]4 | z2 [A,_D]4 | x2 A,4 | z2 C4 | z2 (^A,2 B,2) | z2 [C_E]4 | %17
 z2 (^A,2 B,2) | z2 [B,E]4 | A6 | x6 | A6 | x6 | x6 | x6 | g6 | x6 | _e6 | x6 | B6 | x6 | x6 | x6 | %33
 c6 | x6 | c6 | x6 | (_a6 | B6) | (e6 | G6) | x6 | x6 | x6 | x6 | x6 | x6 | F6 | x6 |!8va(! x6 | %50
 x6!8va)! |] %51
V:4
 x6 | x6 | x6 | x6 | x6 | x6 | x6 | x6 | x6 | x6 | x6 | x6 | x6 | x6 | x6 | z2 (^C,2 D,2) | x6 | %17
 z2 (^C,2 D,2) | z2 F,4 | x6 | x6 | x6 | x6 | x6 | x6 | x6 | x6 | x6 | x6 | x6 | x6 | x6 | x6 | %33
 x6 | x6 | x6 | x2[K:treble] x4 |[K:bass] x6 | x6 | x6 | x6 | x6 | x6 | x6 | x6 | x6 | x6 | x6 | %48
[K:treble] x6 | x6 | x6 |] %51

